Papirus/24x24/apps/vroid-studio.svg

<svg width="24" height="24" version="1.1" xmlns="http://www.w3.org/2000/svg">
 <path d="m1.0830295 13.21684c0.8927181-1.505667 4.3782893-7.3780576 5.2704649-8.8840685 0.1090703-0.1841136 0.3728261-0.3332292 0.5893798-0.3327704 1.7482421 0.00371 8.4932948 0.020499 10.241408 0.023743 0.216553 4.047e-4 0.479523 0.1503656 0.586669 0.3355756 0.875055 1.5125915 4.27435 7.4183583 5.149145 8.9308563 0.107121 0.185208 0.106583 0.484595-0.0022 0.668883-0.875094 1.482621-4.243606 7.176131-5.119218 8.658376-0.108839 0.184242-0.37245 0.334152-0.589002 0.335017-1.778386 7e-3 -8.7423744 0.04087-10.520862 0.04755-0.2165519 7.8e-4 -0.4787596-0.149121-0.5852129-0.334717-0.8591055-1.497763-4.1656285-7.281472-5.024931-8.779268-0.10646931-0.185581-0.10481618-0.485102 0.00432-0.669181z" style="opacity:.2"/>
 <path d="m1.0830295 12.216839c0.8927181-1.505668 4.3782893-7.3780576 5.2704649-8.8840674 0.1090703-0.1841137 0.3728261-0.3332294 0.5893798-0.3327705 1.7482421 0.00371 8.4932948 0.020499 10.241408 0.023744 0.216553 4.046e-4 0.479523 0.1503655 0.586669 0.3355754 0.875055 1.5125905 4.27435 7.4183595 5.149145 8.9308545 0.107121 0.185208 0.106583 0.484595-0.0022 0.668884-0.875094 1.482618-4.243606 7.176129-5.119218 8.658375-0.108839 0.184242-0.37245 0.334153-0.589002 0.335019-1.778393 7e-3 -8.7423818 0.04087-10.520869 0.04754-0.2165455 7.88e-4 -0.4787532-0.149113-0.5852065-0.334709-0.8591055-1.497762-4.1656285-7.281471-5.024931-8.779268-0.10646931-0.185581-0.10481618-0.485102 0.00432-0.669182z" style="fill:#fecd38"/>
 <path d="m10.007046 18.929607 5.565979-8.678783a0.55519942 0.507379 0 0 1 0.554624-0.246094l2.822482 0.354664a0.05774151 0.05276814 0 0 1 0.04169 0.07935l-5.398087 8.254568a0.65728976 0.60067612 0 0 1-0.560795 0.292523l-2.981502 0.01416a0.05115285 0.04674695 0 0 1-0.04441-0.07039z" style="fill:#feb924"/>
 <path d="m5.0156051 10.441858 1.3791198-2.0529695c0.2057862-0.3063351 0.255246-0.3888916 0.3503299-0.3888885l2.3300644 7.86e-5c0.209068-0.00354 0.3492421 0.1898625 0.4725718 0.3888099l2.45231 3.9559055-1.598205 2.547041c-0.0951 0.151568-0.290249 0.142243-0.37459-0.0179l-2.0591754-3.90985c-0.00671-0.01265-0.018313-0.02044-0.03097-0.0207l-2.879881-0.332052c-0.051323-1e-3 -0.065424-0.06232-0.052879-0.118687z" style="fill:#feb924"/>
 <path d="m6.7441406 7.9999999c-0.095084-3.1e-6 -0.1438234 0.082211-0.3496094 0.3880752l-1.3789062 2.0495829-0.011719 0.050702c-0.012545 0.05628 0.00141 0.117959 0.052734 0.118957l0.4785162-0.491429 0.859375-1.2753835c0.205786-0.3058645 0.2545256-0.3880783 0.3496094-0.3880752h2.3300782c0.2090677-0.0035346 0.3493266 0.1894334 0.4726562 0.3880752l2.140625 3.4478235 0.102522 0.711624 0.209978-0.660921-2.453125-3.9509559c-0.1233296-0.1986417-0.2635885-0.3916097-0.4726562-0.3880752z" style="opacity:.2"/>
 <path d="m16.120801 10.004753c-0.222132-0.027958-0.440823 0.06914-0.554199 0.24607l-5.559551 8.678873c-0.019633 0.03074 4e-3 0.06947 0.04293 0.0703l0.89019 0.0021 0.278701-0.317355 4.665808-7.34306c0.115575-0.182616 0.319677-0.542889 0.538588-0.540989l2.356745-0.02699 0.207296-0.363232 0.01269-0.165902-0.568739 0.05114z" style="opacity:.2"/>
 <path d="m23.650752 18.000199-6.261936 0.09394c-0.597157 0.0086-1.151906 0.312756-1.483482 0.813478l-3.874572 5.859672c-0.08006 0.122726 0.0052 0.286277 0.150957 0.28932l0.818389-0.056609 4.003091-5.011807c0.214375-0.508553 0.405551-0.971249 1.002718-0.979815l6.050445-0.04568c0.597018-0.0089 0.571079 0.529854 0.979873 1.067071l6.691669 8.970231 0.272096-0.371983-6.847128-9.853793c-0.342504-0.493025-0.905102-0.782925-1.50212-0.774025z" style="display:none;opacity:.2"/>
 <path d="m5.1958166 10.329912 2.7065127-0.01954a0.61335511 0.60196405 0 0 1 0.5316696 0.294231l1.9220921 3.171631a0.21567952 0.21167398 0 0 0 0.367727 0.0048l3.535896-5.4944686a0.62651909 0.61488356 0 0 1 0.539659-0.2864619l2.455838 0.038255a0.66223873 0.64993982 0 0 1 0.544071 0.2946424l1.170053 1.7595361a0.18866652 0.18516267 0 0 1-0.15953 0.286321l-2.380546-0.01898a0.62819052 0.61652393 0 0 0-0.538061 0.290138l-5.244234 8.24872a0.21922042 0.21514911 0 0 1-0.372116-2.28e-4l-5.244979-8.272883a0.19715657 0.193495 0 0 1 0.1659476-0.295713z" style="fill:#feffff"/>
 <path d="m18.992209 10.424568-5.432308 8.324531c-0.117544 0.170723-0.31786 0.232804-0.547322 0.234001l-3.003241 0.01498c-0.0046 0.270203-0.0079 0.846867-0.0093 1.00191v-0.59399l3.024305-0.022c0.229462-0.0012 0.441497-0.0024 0.559041-0.17312l5.383932-7.965612c0.02213-0.0312 0.05427-1.241327 0.01224-1.245281z" style="fill:#fefefe;opacity:.2"/>
</svg>

<svg xmlns="http://www.w3.org/2000/svg" width="24" height="24" version="1.1">
 <path style="opacity:0.2" d="M 1.083,12.717 C 1.9757,11.211 5.4613,5.3388 6.3535,3.8328 6.4626,3.6487 6.7263,3.4995 6.9429,3.5 8.6911,3.5037 15.436,3.5205 17.184,3.5237 17.401,3.5241 17.664,3.6741 17.771,3.8593 18.646,5.3719 22.045,11.278 22.92,12.79 23.027,12.975 23.027,13.275 22.918,13.459 22.043,14.942 18.674,20.635 17.799,22.117 17.69,22.302 17.426,22.452 17.21,22.452 15.431,22.459 8.4673,22.493 6.6888,22.5 6.4723,22.501 6.2101,22.351 6.1036,22.165 5.2445,20.668 1.938,14.884 1.0787,13.386 0.9722,13.2 0.97385,12.901 1.083,12.717 Z"/>
 <path style="fill:#fecd38" d="M 1.083,12.217 C 1.9757,10.711 5.4613,4.8388 6.3535,3.3328 6.4626,3.1487 6.7263,2.9995 6.9429,3 8.6911,3.0037 15.436,3.0205 17.184,3.0237 17.401,3.0241 17.664,3.1741 17.771,3.3593 18.646,4.8719 22.045,10.778 22.92,12.29 23.027,12.475 23.027,12.775 22.918,12.959 22.043,14.442 18.674,20.135 17.799,21.617 17.69,21.802 17.426,21.952 17.21,21.952 15.431,21.959 8.4673,21.993 6.6888,22 6.4723,22.001 6.2101,21.851 6.1036,21.665 5.2445,20.168 1.938,14.384 1.0787,12.886 0.9722,12.7 0.97385,12.401 1.083,12.217 Z"/>
 <path style="fill:#feb924" d="M 10.007,18.93 15.573,10.251 A 0.5552,0.50738 0 0 1 16.128,10.005 L 18.95,10.359 A 0.05774,0.05277 0 0 1 18.992,10.439 L 13.594,18.693 A 0.65729,0.60068 0 0 1 13.033,18.986 L 10.051,19 A 0.05115,0.04675 0 0 1 10.007,18.93 Z"/>
 <path style="fill:#feb924" d="M 5.0156,10.442 6.3947,8.3889 C 6.6005,8.0826 6.65,8 6.7451,8 L 9.0751,8.0001 C 9.2842,7.9965 9.4244,8.1899 9.5477,8.3889 L 12,12.345 10.402,14.892 C 10.307,15.043 10.112,15.034 10.027,14.874 L 7.968,10.964 C 7.9613,10.951 7.9497,10.944 7.9371,10.943 L 5.0572,10.611 C 5.0059,10.61 4.9918,10.549 5.0043,10.493 Z"/>
 <path style="opacity:0.2" d="M 6.7441,8 C 6.6491,8 6.6003,8.0822 6.3945,8.3881 L 5.0156,10.438 5.0039,10.488 C 4.9914,10.545 5.0053,10.606 5.0566,10.607 L 5.5352,10.116 6.3945,8.8405 C 6.6003,8.5346 6.6491,8.4524 6.7441,8.4524 H 9.0742 C 9.2833,8.4489 9.4235,8.6419 9.5469,8.8405 L 11.687,12.288 11.79,13 12,12.339 9.5469,8.3881 C 9.4235,8.1894 9.2833,7.9965 9.0742,8 Z"/>
 <path style="opacity:0.2" d="M 16.121,10.005 C 15.899,9.9768 15.68,10.074 15.567,10.251 L 10.007,18.93 C 9.9874,18.96 10.011,18.999 10.05,19 L 10.94,19.002 11.219,18.685 15.885,11.342 C 16,11.159 16.204,10.799 16.423,10.801 L 18.78,10.774 18.987,10.41 19,10.245 18.431,10.296 Z"/>
 <path style="fill:#feffff" d="M 5.1958,10.33 7.9023,10.31 A 0.61336,0.60196 0 0 1 8.434,10.605 L 10.356,13.776 A 0.21568,0.21167 0 0 0 10.724,13.781 L 14.26,8.2866 A 0.62652,0.61488 0 0 1 14.799,8.0001 L 17.255,8.0384 A 0.66224,0.64994 0 0 1 17.799,8.333 L 18.969,10.093 A 0.18867,0.18516 0 0 1 18.81,10.379 L 16.429,10.36 A 0.62819,0.61652 0 0 0 15.891,10.65 L 10.647,18.899 A 0.21922,0.21515 0 0 1 10.275,18.899 L 5.0299,10.626 A 0.19716,0.1935 0 0 1 5.1958,10.33 Z"/>
 <path style="opacity:0.2;fill:#fefefe" d="M 18.992,10.425 13.56,18.749 C 13.442,18.92 13.242,18.982 13.013,18.983 L 10.009,18.998 C 10.005,19.268 10.001,19.845 10,20 V 19.406 L 13.024,19.384 C 13.254,19.383 13.466,19.382 13.583,19.211 L 18.967,11.245 C 18.989,11.214 19.022,10.004 18.98,10 Z"/>
 <path style="opacity:0.2;fill:#ffffff" d="M 6.9434,3 C 6.7268,2.9995 6.4626,3.1479 6.3535,3.332 5.4613,4.838 1.9767,10.711 1.084,12.217 H 1.082 C 0.98698,12.377 0.9804,12.621 1.0488,12.805 1.0599,12.775 1.0667,12.743 1.082,12.717 1.9747,11.211 5.4613,5.338 6.3535,3.832 6.4626,3.6479 6.7268,3.4995 6.9434,3.5 8.6916,3.5037 15.436,3.5202 17.184,3.5234 17.401,3.5238 17.664,3.6742 17.771,3.8594 18.646,5.372 22.045,11.277 22.92,12.789 22.934,12.813 22.941,12.844 22.951,12.871 23.019,12.689 23.012,12.45 22.92,12.291 22.045,10.779 18.647,4.872 17.771,3.3594 17.664,3.1742 17.4,3.0238 17.184,3.0234 15.435,3.0202 8.6916,3.0037 6.9434,3 Z"/>
</svg>
